src/assets/icons/bath.svg

<svg width="20" height="21" viewBox="0 0 20 21" fill="none" xmlns="http://www.w3.org/2000/svg">
<g clip-path="url(#clip0_139_8320)">
<g clip-path="url(#clip1_139_8320)">
<path d="M0.269455 14.2616H10.11V16.0697H16.2615V14.2655H18.7054C18.8637 16.4158 18.8761 18.3304 16.6707 19.7897C16.6437 19.8075 16.6221 19.8318 16.5623 19.885C16.8335 20.1103 17.1009 20.3329 17.3655 20.5529C17.0082 20.8945 16.7212 21.169 16.3922 21.4842C16.1019 21.1848 15.7879 20.8373 15.4458 20.5207C15.3453 20.4275 15.1673 20.3894 15.0215 20.3802C14.7831 20.3657 14.5414 20.4045 14.301 20.4052C11.1057 20.4071 7.91048 20.4065 4.71457 20.4065C4.56154 20.4065 4.398 20.436 4.25679 20.3933C3.83054 20.2653 3.55994 20.4629 3.30642 20.7684C3.09034 21.0284 2.84405 21.2629 2.61877 21.5007C2.31468 21.1808 2.03949 20.8918 1.73474 20.5707C1.939 20.39 2.19843 20.1602 2.49004 19.9014C2.28906 19.7576 2.13866 19.6577 1.99614 19.5474C0.928209 18.7244 0.350896 17.6329 0.275366 16.2924C0.23793 15.6284 0.268798 14.9604 0.268798 14.2616H0.269455Z" fill="white"/>
<path d="M0.275543 9.28709C0.270288 9.16821 0.261093 9.06116 0.261093 8.9541C0.260437 7.21363 0.258466 5.47381 0.261093 3.73333C0.26372 1.82078 1.59108 0.486191 3.50101 0.499984C4.14203 0.504581 4.80275 0.491446 5.41882 0.636595C6.5117 0.894711 7.20001 1.65264 7.53235 2.72057C7.59671 2.92811 7.68012 3.0286 7.90803 3.09034C9.19401 3.43909 10.0964 4.641 10.1128 5.98216C10.1155 6.19824 10.1128 6.41432 10.1128 6.64879H4.02578C3.73548 5.11389 4.56959 3.52973 6.31335 3.03517C6.15573 2.35014 5.48121 1.77217 4.7732 1.74722C4.23792 1.72817 3.70067 1.7262 3.16539 1.74722C2.24261 1.78334 1.50044 2.63059 1.4965 3.64663C1.48994 5.39762 1.49453 7.14926 1.49453 8.90025C1.49453 9.01978 1.49453 9.13932 1.49453 9.28644H0.274229L0.275543 9.28709Z" fill="white"/>
<path d="M10.0926 13.0327C9.96387 13.0327 9.86732 13.0327 9.77077 13.0327C6.64317 13.0327 3.51491 13.0334 0.387306 13.0321C-0.285898 13.0321 -0.769947 12.7135 -0.940054 12.1697C-1.1962 11.3514 -0.61626 10.5632 0.267771 10.5514C1.20829 10.5389 2.1488 10.5481 3.08931 10.5481C5.29873 10.5481 7.5075 10.5481 9.71692 10.5481C9.83514 10.5481 9.95336 10.5481 10.0926 10.5481V13.0321V13.0327Z" fill="white"/>
<path d="M15.0237 14.8711H11.3634C11.3575 14.7555 11.3477 14.6504 11.3477 14.5453C11.3464 13.2771 11.3464 12.0082 11.3477 10.7399C11.3483 9.82242 11.8494 9.31801 12.763 9.31407C13.1019 9.31275 13.4408 9.30553 13.7797 9.31604C14.5409 9.34034 15.0381 9.85197 15.0401 10.6152C15.044 11.9386 15.0414 13.2613 15.0401 14.5848C15.0401 14.6708 15.0309 14.7562 15.0237 14.8711Z" fill="white"/>
<path d="M16.2832 13.0209V10.5482C16.8782 10.5482 17.4648 10.5462 18.0506 10.5488C18.356 10.5501 18.668 10.5252 18.9668 10.5744C19.619 10.6821 20.0433 11.2161 20.0164 11.8394C19.9901 12.4509 19.5389 12.9756 18.8985 13.0091C18.0394 13.0544 17.1764 13.0203 16.2839 13.0203L16.2832 13.0209Z" fill="white"/>
</g>
</g>
<defs>
<clipPath id="clip0_139_8320">
<rect width="20" height="20" fill="white" transform="translate(0 0.5)"/>
</clipPath>
<clipPath id="clip1_139_8320">
<rect width="21.0171" height="21" fill="white" transform="translate(-1 0.5)"/>
</clipPath>
</defs>
</svg>

<svg xmlns="http://www.w3.org/2000/svg" width="20" height="21" fill="none" xmlns:v="https://vecta.io/nano"><g clip-path="url(#A)"><g clip-path="url(#B)" fill="#fff"><path d="M.269 14.262h9.841v1.808h6.152v-1.804h2.444c.158 2.15.171 4.065-2.035 5.524-.027.018-.049.042-.108.095l.803.668-.973.931-.946-.963c-.101-.093-.279-.131-.424-.141-.238-.014-.48.024-.72.025l-9.586.001c-.153 0-.317.029-.458-.013-.426-.128-.697.07-.95.375-.216.26-.462.494-.688.732l-.884-.93.755-.669-.494-.354a4.24 4.24 0 0 1-1.723-3.255c-.037-.664-.006-1.332-.006-2.03H.27zm.007-4.975l-.014-.333V3.733C.264 1.821 1.591.486 3.501.5c.641.005 1.302-.009 1.918.137C6.512.895 7.2 1.653 7.532 2.721a.46.46 0 0 0 .376.37c1.286.349 2.188 1.551 2.205 2.892v.667H4.026c-.29-1.535.544-3.119 2.288-3.614-.158-.685-.832-1.263-1.54-1.288a21.51 21.51 0 0 0-1.608 0c-.923.036-1.665.883-1.669 1.899L1.495 8.9v.386H.274l.001.001z"/><path d="M10.093 13.033h-.322c-3.128 0-6.256.001-9.383-.001-.673 0-1.157-.319-1.327-.862-.256-.818.324-1.607 1.208-1.618l2.822-.003h6.628.376v2.484.001zm4.931 1.838h-3.66l-.016-.326V10.74c.001-.917.502-1.422 1.415-1.426l1.017.002c.761.024 1.258.536 1.26 1.299v3.97c0 .086-.009.171-.016.286zm1.259-1.85v-2.473l1.767.001c.305.001.617-.024.916.026.652.108 1.076.642 1.05 1.265-.026.612-.477 1.136-1.118 1.17l-2.615.011-.001.001z"/></g></g><defs><clipPath id="A"><path fill="#fff" transform="translate(0 .5)" d="M0 0h20v20H0z"/></clipPath><clipPath id="B"><path fill="#fff" transform="translate(-1 .5)" d="M0 0h21.017v21H0z"/></clipPath></defs></svg>
